X:1
T:Sailor's farewell - helmore
C:Taken down from J. Helmore by F.W.B. Sept. 1888.
%%VWML:SBG-1-1-193-0
F:http://www.vwml.org/record/SBG/1/1/192
Z:Original Sibleius Transcription by Martin and Shan Graebe
M:4/4
L:1/8
K:G
D | B2 B2 c2 cA | d2>B2 B2 d2 | [e2f2] [c2d2] B2 A2 | G3:||
 G2 g4 f>g |e2>d2 dB BA | A4> d4 | e2 e2 g2>e2 | dd B2 B2 G2|d3cB2A2|G8||
T:Sailor's farewell - musical century
T:H. Carey’s tune 1739. ‘The Musical Century.’
M:4/4
L:1/8
K:F
E2 | F2 d2 cA BG | E2 F2z2 c2 | f2 a2 fe fd | c4>|
 a4 | ge fd cA GF |D2 d4 FE | Ff ed cB AG | F4z2||



